icons/Map/bus-2-line.svg

<svg viewBox="0 0 24 24" xmlns="http://www.w3.org/2000/svg"><path d="M17 20H7V21C7 21.5523 6.55228 22 6 22H4C3.44772 22 3 21.5523 3 21V12H2V8H3V5C3 3.89543 3.89543 3 5 3H19C20.1046 3 21 3.89543 21 5V8H22V12H21V21C21 21.5523 20.5523 22 20 22H18C17.4477 22 17 21.5523 17 21V20ZM5 5V11H19V5H5ZM19 13H5V18H19V13ZM7.5 17C6.67157 17 6 16.3284 6 15.5C6 14.6716 6.67157 14 7.5 14C8.32843 14 9 14.6716 9 15.5C9 16.3284 8.32843 17 7.5 17ZM16.5 17C15.6716 17 15 16.3284 15 15.5C15 14.6716 15.6716 14 16.5 14C17.3284 14 18 14.6716 18 15.5C18 16.3284 17.3284 17 16.5 17Z"/></svg>

<svg xmlns="http://www.w3.org/2000/svg" viewBox="0 0 24 24">
    <g>
        <path fill="none" d="M0 0h24v24H0z"/>
        <path d="M17 20H7v1a1 1 0 0 1-1 1H4a1 1 0 0 1-1-1v-9H2V8h1V5a2 2 0 0 1 2-2h14a2 2 0 0 1 2 2v3h1v4h-1v9a1 1 0 0 1-1 1h-2a1 1 0 0 1-1-1v-1zM5 5v6h14V5H5zm14 8H5v5h14v-5zM7.5 17a1.5 1.5 0 1 1 0-3 1.5 1.5 0 0 1 0 3zm9 0a1.5 1.5 0 1 1 0-3 1.5 1.5 0 0 1 0 3z"/>
    </g>
</svg>
